X:1
T:Title
%%score { ( 1 3 ) | ( 2 4 ) }
L:1/8
M:4/4
K:G
V:1 treble nm="Grand Piano"
V:3 treble 
V:2 bass 
V:4 bass 
V:1
 z4 z2[Q:1/4=92] D2 | [B,B][B,B]/[B,B]/ [B,B][B,F] [B,A][B,G][_B,F][B,E] | %2
 [B,D][_B,^C][=B,D][=CE] [B,D]BAG | z DDD DcBA | B6 z2 | %5
 [B,DB]B/B/ [B,DB][B,DF] [B,DA][B,DG][_B,F][B,E] | [B,D][_B,^C][=B,D][=CE] [B,D]BAG | %7
 F6[K:bass] z2 |[M:5/8] D-D- D3 |[M:3/8] z3 |[M:4/4][K:treble] z eed cDED | z eed BDEG | %12
 z ddA z ccc |[M:5/8] [GB]B[F_B] B=B |[M:3/8] DED |[M:4/4] z eed cDED | z eed BDEG | %17
 z dd^c [A=c]2 [Bd]2 |[M:3/4] [GB]6 |] %19
V:2
 z8 | [G,,D,]2 [D,,D,]2 [G,,D,]2 [G,,^C,]2 | [G,,D,]2 [G,,D,]2 .[G,,G,]2 z2 | %3
 z [D,A,C][D,A,C][D,A,C] .[D,A,C]2 z2 | z [G,,G,][F,,F,][E,,E,] [D,,D,][C,,C,][B,,,B,,][A,,,A,,] | %5
 z [B,D]/[B,D]/ [D,,D,]2 [G,,G,]2 [G,,^C,]2 | [G,,D,]2 [G,,D,]2 .[G,,G,]2 z2 | %7
 z [A,,A,][A,,A,][A,,A,] .[A,,A,]2 A,,A |[M:5/8] D,B,,A,, F,,D,, |[M:3/8] DED | %10
[M:4/4] D,,2 [D,A,C]2 [D,A,C]2 z2 | G,,2 [D,G,B,]2 [D,G,B,]2 z2 | z4 z2 [D,F,A,]2 | %13
[M:5/8] z D z E[D,G,D] |[M:3/8] z3 |[M:4/4] D,,2 [D,A,C]2 [D,A,C]2 z2 | %16
 G,,2 [D,G,B,]2 [D,G,B,]2 z2 | z2 [D,F,C]2 z4 |[M:3/4] [G,,G,]E, D,B,, G,,2 |] %19
V:3
 x8 | x8 | x8 | F6 z2 | z [DG][DG][DG] [DG]2 D2 | x8 | x8 | z DDD DA[K:bass] .[G,^CE]2 | %8
[M:5/8] F, z z z2 |[M:3/8] x3 |[M:4/4][K:treble] F6 z2 | G6 z2 | F4 E4 |[M:5/8] x5 |[M:3/8] x3 | %15
[M:4/4] F6 z2 | G6 z2 | F4 z4 |[M:3/4] x6 |] %19
V:4
 x8 | x8 | x8 | x8 | x8 | [G,,,G,,]2 z2 z4 | x8 | x8 |[M:5/8] x5 |[M:3/8] x3 |[M:4/4] x8 | x8 | %12
 A,,2 [D,F,C]2 D,,2 z F |[M:5/8] G,,2 [^C,G,]2 z |[M:3/8] x3 |[M:4/4] x8 | x8 | %17
 A,,2 z G D,,2 [D,F,C]2 |[M:3/4] x6 |] %19

